X:065 
T:Gerry Cronin's (reel) 
T:Martin Rochford's
B:CRE3.114 (RÃÂÃÂÃÂÃÂ­l GhearÃÂÃÂÃÂÃÂ³id UÃÂÃÂÃÂÃÂ­ ChrÃÂÃÂÃÂÃÂ³inÃÂÃÂÃÂÃÂ­n)
F:file ID: cre.3/065gerr_cr
R:reel
L:1/8
Q:180
M:C
K:C
GAB|c2ec AGED|CA,A,2 G,A,CD|GAce dBcB|Addc dfed|
c2ec AGED|CA,A,2 G,A,CD|GAce dBcA|GEDE C:|
|:GAB|c2ec acgc|c2ec dcAc|GccB cdef|gece d2eg|
ae~e2 cege|aece dcAc|GAce dBcA|GEDE C:|

%%%

